X: 10321
M: 3/4
L: 1/8
K: D
V: 1 staves=3
df |\
.a2(abag) | (f2d2)d2 | (e2A2)A2 | fede fg |\
.a2abag | (f2d2)d2 (e2A2)A2 | d4 :|
|: cd |\
e2A2A2 | f2d2d2 | e2A2A2 | fede fg |\
.a2 abag | f2d2d2 | e2A2A2 |d4 :|
V: 2
z2 |\
f2fgfe | dAFAFA | cAGAGA | dAFAde |\
f2fgfe | dAFAFA | cAGAGA | F4 :|
|: ED |\
f2fgfe | dAFAFA | cAGAGA | F4 :|
V: 3 clef=bass middle=d
z2 |\
d2d2d2 | d2d2d2 | A2A2A2 | d2d2d2 |\
d2d2d2 | d2d2d2 | A2A2A2 | d4 :|
|: A2 |\
d2d2d2 | d2d2d2 | A2A2A2 | d4 :|


